directory-listing/icons/spreadsheet.svg

<svg xmlns="http://www.w3.org/2000/svg" width="100" height="100"><path fill="#2DB965" d="M67.75 0H17.833a5 5 0 0 0-5 5v90a5 5 0 0 0 5 5h65.333a5 5 0 0 0 5-5V20.417L67.75 0z" opacity=".9"/><path fill="#FFF" d="M67.75 15.417a5 5 0 0 0 5 5h15.417L67.75 0v15.417z" opacity=".4"/><path fill="#FFF" d="M74 81.467H27.25V30.962H74v50.505zm-31.354-2.253h29.101v-9.763H42.646v9.763zm-13.143 0h10.89v-9.763h-10.89v9.763zM42.646 67.01h29.101v-9.575H42.646v9.575zm-13.143 0h10.89v-9.575h-10.89v9.575zm13.143-12.016h29.101v-9.575H42.646v9.575zm-13.143 0h10.89v-9.575h-10.89v9.575zm13.143-12.016h29.101v-9.763H42.646v9.763zm-13.143 0h10.89v-9.763h-10.89v9.763z"/></svg>

<svg version="1.1" xmlns="http://www.w3.org/2000/svg" xmlns:xlink="http://www.w3.org/1999/xlink" width="100px" height="100px" viewBox="0 0 100 100" xml:space="preserve">
<path opacity="0.9" fill="#2DB965" d="M67.75,0H17.833c-2.761,0-5,2.239-5,5v90c0,2.761,2.239,5,5,5h65.333c2.761,0,5-2.239,5-5
	V20.417L67.75,0z"/>
<path opacity="0.4" fill="#FFFFFF" d="M67.75,15.417c0,2.761,2.239,5,5,5h15.417L67.75,0V15.417z"/>
<g>
	<path fill="#FFFFFF" d="M74,81.467H27.25V30.962H74V81.467z M42.646,79.214h29.101v-9.763H42.646V79.214z M29.503,79.214h10.89
		v-9.763h-10.89V79.214z M42.646,67.01h29.101v-9.575H42.646V67.01z M29.503,67.01h10.89v-9.575h-10.89V67.01z M42.646,54.994
		h29.101v-9.575H42.646V54.994z M29.503,54.994h10.89v-9.575h-10.89V54.994z M42.646,42.978h29.101v-9.763H42.646V42.978z
		 M29.503,42.978h10.89v-9.763h-10.89V42.978z"/>
</g>
</svg>
